X:263
T: ES GIENG A MOL A BETTELSMANN
N: E0139
O: Europa, Mitteleuropa, Deutschland, Kuhlaendchen
R: erzaehlendes Volks - Lied, Scherz, Schwank, betrogener Ehemann
M: 2/4
L: 1/16
K: G
D2 | G2B2A2c2 | B2BGA2
D2 | G2B2d3B | ddBGA2
A2 | B2d2c2B2 | d2cBA2
A2 | c2BAc2BA | B2D2G2

